packages/assets/static/images/icons/file-zip.svg

<svg width="24" height="24" viewBox="0 0 24 24" xmlns="http://www.w3.org/2000/svg" fill="currentColor" aria-hidden="true"> <path d="M17.625 13.8755H16.125C15.8266 13.8755 15.5405 13.994 15.3295 14.205C15.1185 14.416 15 14.7021 15 15.0005V20.2505C15 20.5489 15.1185 20.835 15.3295 21.046C15.5405 21.257 15.8266 21.3755 16.125 21.3755C16.4234 21.3755 16.7095 21.257 16.9205 21.046C17.1315 20.835 17.25 20.5489 17.25 20.2505V19.8755H17.625C18.4206 19.8755 19.1837 19.5594 19.7463 18.9968C20.3089 18.4342 20.625 17.6711 20.625 16.8755C20.625 16.0798 20.3089 15.3168 19.7463 14.7542C19.1837 14.1916 18.4206 13.8755 17.625 13.8755ZM17.625 17.6255H17.25V16.1255H17.625C17.8239 16.1255 18.0147 16.2045 18.1553 16.3452C18.296 16.4858 18.375 16.6766 18.375 16.8755C18.375 17.0744 18.296 17.2652 18.1553 17.4058C18.0147 17.5465 17.8239 17.6255 17.625 17.6255ZM13.125 15.0005V20.2505C13.125 20.5489 13.0065 20.835 12.7955 21.046C12.5845 21.257 12.2984 21.3755 12 21.3755C11.7016 21.3755 11.4155 21.257 11.2045 21.046C10.9935 20.835 10.875 20.5489 10.875 20.2505V15.0005C10.875 14.7021 10.9935 14.416 11.2045 14.205C11.4155 13.994 11.7016 13.8755 12 13.8755C12.2984 13.8755 12.5845 13.994 12.7955 14.205C13.0065 14.416 13.125 14.7021 13.125 15.0005ZM9 20.2505C9 20.5489 8.88147 20.835 8.6705 21.046C8.45952 21.257 8.17337 21.3755 7.875 21.3755H4.875C4.67799 21.3755 4.48443 21.3237 4.3137 21.2254C4.14297 21.1271 4.00106 20.9857 3.90215 20.8153C3.80324 20.6449 3.75081 20.4515 3.7501 20.2545C3.7494 20.0575 3.80044 19.8638 3.89813 19.6927L5.93625 16.1255H4.875C4.57663 16.1255 4.29048 16.007 4.0795 15.796C3.86853 15.585 3.75 15.2989 3.75 15.0005C3.75 14.7021 3.86853 14.416 4.0795 14.205C4.29048 13.994 4.57663 13.8755 4.875 13.8755H7.875C8.0727 13.875 8.26703 13.9267 8.43841 14.0252C8.60979 14.1238 8.75218 14.2658 8.85123 14.4369C8.95027 14.608 9.00248 14.8021 9.0026 14.9998C9.00271 15.1975 8.95073 15.3918 8.85187 15.563L6.81375 19.1255H7.875C8.17337 19.1255 8.45952 19.244 8.6705 19.455C8.88147 19.666 9 19.9521 9 20.2505ZM20.2959 8.20549L15.0459 2.95549C14.9415 2.85088 14.8174 2.76789 14.6808 2.71127C14.5442 2.65464 14.3978 2.6255 14.25 2.62549H5.25C4.75272 2.62549 4.27581 2.82303 3.92417 3.17466C3.57254 3.52629 3.375 4.00321 3.375 4.50049V10.8755C3.375 11.1739 3.49353 11.46 3.7045 11.671C3.91548 11.882 4.20163 12.0005 4.5 12.0005C4.79837 12.0005 5.08452 11.882 5.2955 11.671C5.50647 11.46 5.625 11.1739 5.625 10.8755V4.87549H12.75V9.37549C12.75 9.67386 12.8685 9.96001 13.0795 10.171C13.2905 10.382 13.5766 10.5005 13.875 10.5005H18.375V10.8755C18.375 11.1739 18.4935 11.46 18.7045 11.671C18.9155 11.882 19.2016 12.0005 19.5 12.0005C19.7984 12.0005 20.0845 11.882 20.2955 11.671C20.5065 11.46 20.625 11.1739 20.625 10.8755V9.00049C20.625 8.70235 20.5066 8.41642 20.2959 8.20549ZM15 8.25049V6.09424L17.1562 8.25049H15Z"/> </svg>

<svg viewBox="0 0 24 24" xmlns="http://www.w3.org/2000/svg" aria-hidden="true" fill="currentColor"><path d="M17.625 13.876h-1.5A1.125 1.125 0 0 0 15 15v5.25a1.125 1.125 0 1 0 2.25 0v-.376h.375a3 3 0 0 0 0-6m0 3.75h-.375v-1.5h.375a.75.75 0 1 1 0 1.5M13.125 15v5.25a1.125 1.125 0 1 1-2.25 0V15a1.125 1.125 0 1 1 2.25 0M9 20.25a1.125 1.125 0 0 1-1.125 1.125h-3a1.125 1.125 0 0 1-.977-1.682l2.038-3.568H4.875a1.125 1.125 0 1 1 0-2.25h3a1.125 1.125 0 0 1 .977 1.688l-2.038 3.562h1.061A1.125 1.125 0 0 1 9 20.25M20.296 8.205l-5.25-5.25a1.12 1.12 0 0 0-.796-.33h-9A1.875 1.875 0 0 0 3.375 4.5v6.376a1.125 1.125 0 0 0 2.25 0v-6h7.125v4.5a1.125 1.125 0 0 0 1.125 1.125h4.5v.375a1.125 1.125 0 1 0 2.25 0V9c0-.298-.118-.584-.33-.795M15 8.25V6.094l2.156 2.156z"/></svg>
